X:1
T:Title
%%score { ( 1 3 ) | ( 2 4 ) }
L:1/8
Q:1/4=90
M:2/4
K:F
V:1 treble nm="Grand Piano"
V:3 treble 
V:2 bass 
V:4 bass 
V:1
 A2 cB | A3 A | [EA][EG] FE | G2 F2 | d2 cB | A2 A2 | AG FA | [EG]4 | c2 de | c2 c2 | %10
w: Herbert~G.~Tovey * *||||||||||
 [Ec][EA] [EG][EA] | F4 | d2 cB | A[EA] [FB][F=B] | [Fc]2 E2 | F4 |] %16
w: ||||||
V:2
 [F,CF]2 [F,_EF][F,DF] | [F,CF]3 [F,CF] | [C,C][C,B,] [C,A,C][C,B,C] | [F,A,C]4 | %4
 [B,F]2 [A,CF][K:bass][F,CE] | [F,CF]2[K:treble] [F,CF]2 | [G,=B,F][G,B,E] [G,B,D][G,B,F] | C4 | %8
 [A,CF]2 [_A,CF][A,CF] | [G,B,E]2 [A,CF]2 | [C,C][C,C] [^C,B,][C,A,] | [D,A,D]4 | %12
 [B,F]2 [A,CF][K:bass][G,CE] | [F,CF][_E,C] [D,B,][^C,_A,] | [C,A,]2 [C,B,C]2 | [F,A,C]4 |] %16
V:3
 x4 | x4 | x4 | x4 | x4 | x4 | x4 | z2 B,2 | x4 | x4 | x4 | x4 | x4 | x4 | x4 | x4 |] %16
V:4
 x4 | x4 | x4 | x4 | x3[K:bass] x | x2[K:treble] x2 | x4 | C,2 z2 | x4 | x4 | x4 | x4 | %12
 x3[K:bass] x | x4 | x4 | x4 |] %16

